Numix/64/status/aptdaemon-working.svg

<?xml version="1.0" encoding="UTF-8" standalone="no"?>
<svg
   xmlns:dc="http://purl.org/dc/elements/1.1/"
   xmlns:cc="http://creativecommons.org/ns#"
   xmlns:rdf="http://www.w3.org/1999/02/22-rdf-syntax-ns#"
   xmlns:svg="http://www.w3.org/2000/svg"
   xmlns="http://www.w3.org/2000/svg"
   xmlns:sodipodi="http://sodipodi.sourceforge.net/DTD/sodipodi-0.dtd"
   xmlns:inkscape="http://www.inkscape.org/namespaces/inkscape"
   width="64"
   height="64"
   viewBox="0 0 64 64"
   id="svg2"
   version="1.1"
   inkscape:version="0.91 r"
   sodipodi:docname="aptdaemon-working.svg">
  <metadata
     id="metadata10">
    <rdf:RDF>
      <cc:Work
         rdf:about="">
        <dc:format>image/svg+xml</dc:format>
        <dc:type
           rdf:resource="http://purl.org/dc/dcmitype/StillImage" />
        <dc:title></dc:title>
      </cc:Work>
    </rdf:RDF>
  </metadata>
  <defs
     id="defs8" />
  <sodipodi:namedview
     pagecolor="#ffffff"
     bordercolor="#666666"
     borderopacity="1"
     objecttolerance="10"
     gridtolerance="10"
     guidetolerance="10"
     inkscape:pageopacity="0"
     inkscape:pageshadow="2"
     inkscape:window-width="1920"
     inkscape:window-height="1056"
     id="namedview6"
     showgrid="true"
     inkscape:zoom="32"
     inkscape:cx="56.448158"
     inkscape:cy="11.190678"
     inkscape:window-x="0"
     inkscape:window-y="24"
     inkscape:window-maximized="1"
     inkscape:current-layer="svg2">
    <inkscape:grid
       type="xygrid"
       id="grid4138" />
  </sodipodi:namedview>
  <path
     style="fill:#c28e5c"
     d="M 20,9.9999998 10,22 30,22 30,9.9999998 Z m 14,0 L 34,22 54,22 44,9.9999998 Z M 10,26 l 0,28 26.386718,0 c -0.993392,-4.246606 0.13784,-8.907744 3.421876,-12.191406 2.52106,-2.521342 5.85662,-3.78125 9.191406,-3.78125 1.703174,0 3.405208,0.334528 5,0.992188 L 54,26 Z"
     id="path4"
     inkscape:connector-curvature="0"
     sodipodi:nodetypes="ccccccccccccccsccc" />
  <g
     id="g4147-5"
     transform="matrix(0.225,0,0,0.225,19.1,52.1)"
     style="fill:#ee545b;fill-opacity:1;stroke:#000000;stroke-width:17.77777863;stroke-miterlimit:4;stroke-dasharray:none;stroke-opacity:1" />
  <path
     style="opacity:1;fill:none;fill-opacity:1;fill-rule:nonzero;stroke:#4db147;stroke-width:2.75000024;stroke-linecap:butt;stroke-linejoin:miter;stroke-miterlimit:4;stroke-dasharray:none;stroke-dashoffset:0;stroke-opacity:1"
     id="path4138"
     sodipodi:type="arc"
     sodipodi:cx="51.000534"
     sodipodi:cy="-48.9995"
     sodipodi:rx="7.625524"
     sodipodi:ry="7.6254892"
     sodipodi:start="4.712389"
     sodipodi:end="3.1415927"
     sodipodi:open="true"
     d="m 51.000534,-56.62499 a 7.625524,7.6254892 0 0 1 7.045066,4.707342 7.625524,7.6254892 0 0 1 -1.653006,8.310183 7.625524,7.6254892 0 0 1 -8.310222,1.652998 7.625524,7.6254892 0 0 1 -4.707362,-7.045034"
     transform="matrix(0,1,-1,0,0,0)" />
</svg>

<svg xmlns="http://www.w3.org/2000/svg" viewBox="0 0 64 64">
 <path d="m 20 10 -10 12 20 0 0 -12 m 4 0 l 0 12 20 0 -10 -12 m -34 16 l 0 28 26.387 0 c -0.993 -4.247 0.138 -8.908 3.422 -12.191 2.521 -2.521 5.857 -3.781 9.191 -3.781 1.703 0 3.405 0.335 5 0.992 l 0 -13.02" style="fill:#c28e5c"/>
 <path d="m 51 -56.625 a 7.626 7.625 0 0 1 7.05 4.707 7.626 7.625 0 0 1 -1.653 8.31 7.626 7.625 0 0 1 -8.31 1.653 7.626 7.625 0 0 1 -4.707 -7.05" transform="matrix(0,1,-1,0,0,0)" style="stroke-dasharray:none;stroke-opacity:1;fill:none;opacity:1;stroke-miterlimit:4;fill-opacity:1;stroke:#4db147;fill-rule:nonzero;stroke-linecap:butt;stroke-linejoin:miter;stroke-width:2.75;stroke-dashoffset:0"/>
</svg>
